X:265
T:Kerry Jig, The
M:6/8
L:1/8
Q:120
R:Jig (Key of D)
K:D
"D"~f3 edB | AFA BAF | DFA dfa | "G"baf "A"ede |
"D"~f3 edB | AFA BAF | DFA "G"~B3 | "A"cBc "D"d2e :|:
"D"~f3 afd | "G"~g3 b2g | "D"~f3 afa | "G"baf "A"ede |
"D"~f3 edB | AFA BAF | DFA "G"~B3 | "A"cBc "D"d2e :|]
